X: 94
T: Hagavi'a
O: Israel
C: Nachum Hayman 1970
N: record: Blue-Star 84 FOR EDUCATIONAL USE YE-10008
M: 3/4
L: 1/8
K: Dm
Q: 1/4=132
%%MIDI program 74 Recorder
%%MIDI bassprog 24 Acoustic Guitar
%%MIDI chordprog 24 Acoustic Guitar
"Dm"DDD3E|FG A2 d2|"Edim"cB "Dm"A3G|"Edim"cB"Am"A4|\
"Dm"=B^c d2 A2|"Gm"GF A2 G2|"Dm"FE F2D2|"Dm"FG A4|
"Dm"=B^c d2 A2|"Gm"GF A2 G2|"Dm"FE F2D2|DC D4|:\
"Dm"DD=B3G|"Dm"A=B A2D2|"Edim"EG "Dm"F2D2|DC D4:|



